X:1
L:1/8
Q:1/4=120
M:6/8
K:D
""^With spirit.""""^A"" | (d/e/)S | f>dB A>GF | E>ee e2 d/e/ | f>dB AFA | B>dd d2 :|""^B"" | (f/e/) | 
 d>fa d>fa | d>fa a>(gf/e/) | d>fa d>fa | bge e2 (f/e/) | dfa dfa | dd'b !fermata!a2 (a/g/)S |]
